X:1
T:Joelle
C:Laurence Beaudry
Z:robin.beech@mcgill.ca
R:jig
M:6/8
L:1/8
K:D
dfa g2e | fdd ecA | dfa g2e | fbb age |
dfa g2e | fdd ecA | GBd cAA | cfe d3 ::
cBA cee | GFE GBd | cBA cde | fdd g2f |
cBA cBA | GFE GBd | cBA GFD |1 E2E2 AB :|2 E6 ||
dfa g2e | fdd ecA | dfa g2e | fbb age |
dfa g2e | fdd ecA | GBd cAA | cfe d3 |]
